X:1

T:Which Way Did She Go?

M:3/4

L:1/8

R:Air

S:O’Neill – O’Neill’s Irish Music (1915)

Z:AK/Fiddler’s Companion

K:E_

E>G B2 c>B | Ge G2 F>G | EG B2 ce | f4 g>e | G2e2 e>d | c3d c>B | B>G Bc e>c |

B>G F>E FG | {E/F/G/}EE E4 || G>E GB c2 | B>G e2 B>G | F>E GB c>e | f4 g>e |

f4 g>e | f2d2 e>c | B>G Bc e>e | c>B GE F>G | EE E4 ||

 

WHICH WAY SHALL I TURN ME. AKA and see "Tom Tinker's my true love." English, Air. The tune appears under this title in John Gay's Beggar's Opera of 1728.

 

WHIDDON'S FAVORITE. American, Reel. A Major. Standard. AABB. Probably the W.H. Whiddon whose name is listed as composer for several Ryan’s Mammoth Collection tunes. Cole (1000 Fiddle Tunes), 1940; pg. 3. Ryan’s Mammoth Collection, 1883; pg. 25.

